X:244
T: Marienlied
N: A0603
O: Europa, Mitteleuropa, Deutschland
N: Maizer Cantual 1605 S. 189.
R: Romanze, Ballade, Lied, religioeses Lied
M: 6/2
L: 1/2
K: C
c | A2AB2B | c3c2
c | d2cc2B | A3G2
G | G2AB2B | c3c2
c | c2GG2F | E3z2
E | E2EG2G | E3C2
C | G2GA2B | c2ed2
d | c2cA2B | c3z2

@@@ Tune index: 557
